src/assets/svg/pay-wallet.svg

<svg width="40" height="34" viewBox="0 0 40 34" fill="none" xmlns="http://www.w3.org/2000/svg">
<path fill-rule="evenodd" clip-rule="evenodd" d="M36.662 27.0261C36.6014 26.9984 36.5351 26.9853 36.4684 26.9879H31.6029C26.134 26.9879 21.3147 22.6699 21.3147 16.8675C21.3147 11.0651 26.134 6.74699 31.6029 6.74699H36.4684C36.5351 6.74966 36.6014 6.73659 36.662 6.70882C36.7227 6.68105 36.7759 6.63936 36.8174 6.58714C36.8589 6.53493 36.8875 6.47366 36.9009 6.40833C36.9143 6.34299 36.9121 6.27541 36.8945 6.21109C36.5089 4.83856 35.894 3.66843 34.9089 2.68144C33.4651 1.23952 31.6357 0.599518 29.3764 0.294937C27.1807 0 24.374 0 20.8308 0H16.7595C13.2164 0 10.4116 0 8.21397 0.293015C5.9547 0.597595 4.1253 1.23759 2.68144 2.67952C1.23952 4.12337 0.599518 5.95277 0.294937 8.21205C0 10.4096 0 13.2164 0 16.7595V16.9754C0 20.5186 0 23.3234 0.294937 25.521C0.599518 27.7802 1.23952 29.6096 2.68144 31.0535C4.1253 32.4954 5.9547 33.1354 8.21397 33.44C10.4094 33.7349 13.2158 33.7349 16.7584 33.7349H16.7595H20.8308H20.8319C24.3746 33.7349 27.179 33.7349 29.3764 33.44C31.6357 33.1354 33.4651 32.4973 34.9089 31.0516C35.894 30.0684 36.5089 28.8964 36.8945 27.5239C36.9121 27.4595 36.9143 27.392 36.9009 27.3266C36.8875 27.2613 36.8589 27.2 36.8174 27.1478C36.7759 27.0956 36.7227 27.0539 36.662 27.0261ZM6.20659 8.13431C6.47773 7.86316 6.84547 7.71085 7.22891 7.71085H14.9398C15.3232 7.71085 15.6909 7.86316 15.9621 8.13431C16.2332 8.40544 16.3855 8.77318 16.3855 9.15663C16.3855 9.54007 16.2332 9.90781 15.9621 10.179C15.6909 10.4501 15.3232 10.6024 14.9398 10.6024H7.22891C6.84547 10.6024 6.47773 10.4501 6.20659 10.179C5.93546 9.90781 5.78313 9.54007 5.78313 9.15663C5.78313 8.77318 5.93546 8.40544 6.20659 8.13431ZM36.4711 9.63899C36.5945 9.63771 36.7108 9.64027 36.82 9.6467C37.6394 9.69611 38.4147 10.0417 38.9981 10.6191C39.5815 11.1965 39.9352 11.9662 39.9931 12.785C40.0008 12.9007 40.0008 13.026 40.0008 13.1416V20.5942C40.0008 20.7098 40.0008 20.8351 39.9931 20.9508C39.9352 21.7696 39.5815 22.5394 38.9981 23.1167C38.4147 23.6941 37.6413 24.0397 36.822 24.0891C36.7531 24.0931 36.6816 24.0956 36.6077 24.0966C36.5631 24.0973 36.5176 24.0973 36.4711 24.0968H31.6037C27.6191 24.0968 24.207 20.9585 24.207 16.8679C24.207 12.7773 27.6172 9.63899 31.6037 9.63899H36.4711ZM33.034 16.8679C33.034 17.932 32.2032 18.7956 31.1776 18.7956C30.1502 18.7956 29.3193 17.932 29.3193 16.8679C29.3193 15.8038 30.1502 14.9402 31.1776 14.9402C32.2032 14.9402 33.034 15.8038 33.034 16.8679Z" fill="#00C700"/>
</svg>

<svg xmlns="http://www.w3.org/2000/svg" width="40" height="34" fill="none"><path fill="#00C700" fill-rule="evenodd" d="M36.662 27.026a.4.4 0 0 0-.194-.038h-4.865c-5.469 0-10.288-4.318-10.288-10.12 0-5.803 4.819-10.121 10.288-10.121h4.865a.424.424 0 0 0 .426-.536c-.385-1.372-1-2.543-1.985-3.53C33.465 1.24 31.636.6 29.376.295 27.181 0 24.374 0 20.831 0h-4.072c-3.543 0-6.347 0-8.545.293-2.26.305-4.089.945-5.533 2.387C1.24 4.123.6 5.953.295 8.212 0 10.41 0 13.216 0 16.76v.215c0 3.544 0 6.348.295 8.546.305 2.26.945 4.089 2.386 5.532 1.444 1.442 3.274 2.082 5.533 2.387 2.195.295 5.002.295 8.544.295h4.074c3.543 0 6.347 0 8.544-.295 2.26-.305 4.09-.943 5.533-2.388.985-.984 1.6-2.156 1.986-3.528a.425.425 0 0 0-.233-.498M6.207 8.134a1.45 1.45 0 0 1 1.022-.423h7.71a1.446 1.446 0 0 1 0 2.891H7.23a1.446 1.446 0 0 1-1.022-2.468M36.47 9.64q.185-.002.349.008a3.39 3.39 0 0 1 3.173 3.138c.008.116.008.241.008.357v7.452c0 .116 0 .241-.008.357a3.383 3.383 0 0 1-3.385 3.146h-5.004c-3.985 0-7.397-3.139-7.397-7.23 0-4.09 3.41-7.228 7.397-7.228zm-3.437 7.229c0 1.064-.83 1.928-1.856 1.928-1.028 0-1.859-.864-1.859-1.928s.831-1.928 1.859-1.928c1.025 0 1.856.864 1.856 1.928" clip-rule="evenodd"/></svg>
